static/images/cs-hyperverge-logo.svg

<svg width="296" height="54" viewBox="0 0 296 54" fill="none" xmlns="http://www.w3.org/2000/svg">
<path d="M6.50415 0C7.16521 0.411658 7.4761 0.80204 7.95434 1.40396C8.19972 9.15173 7.97465 18.324 7.97969 26.167L39.1098 26.1673L39.1344 2.13142C39.5247 1.64481 40.075 1.14049 40.53 0.699557C41.1066 1.20831 41.3743 1.54768 41.8592 2.15005C42.1148 11.5794 41.882 22.2772 41.883 31.8009L41.884 44.6327C41.884 46.0276 42.1358 51.5252 41.4709 52.3638C41.1135 52.6931 40.9644 52.8733 40.4799 52.976C39.975 52.9179 39.5141 52.3521 39.1335 51.9731C38.8916 44.796 39.1104 36.1987 39.1268 28.9088C35.108 28.7804 30.6748 28.8621 26.6255 28.8615L7.96854 28.8955L7.95449 51.8871C7.57596 52.3328 7.0684 52.808 6.64439 53.2246C6.24346 52.8739 5.71654 52.3082 5.32931 51.9163C5.19022 49.2069 5.27373 45.8726 5.2755 43.1246L5.2777 27.9457L5.26959 11.0071C5.26873 7.892 5.19002 4.31976 5.3256 1.23946C5.60858 0.897193 6.17824 0.340179 6.50415 0Z" fill="black"/>
<path d="M155.795 15.4792C159.855 15.5894 166.174 14.7642 169.278 17.1177C170.678 18.1669 171.588 19.742 171.797 21.4784C172.307 25.3828 169.785 28.497 165.914 28.9952C167.504 31.0962 171.866 35.9381 172.95 37.8135C172.126 37.8297 171.199 38.0264 170.677 37.3681C168.663 35.1936 166.053 31.6858 164.109 29.2859C161.932 29.25 159.753 29.2349 157.575 29.2402C157.496 32.0218 157.56 34.9974 157.517 37.8127C156.92 37.8077 156.591 37.7946 156 37.7098C155.604 37.2609 155.787 17.9252 155.795 15.4792ZM157.504 27.8444C161.159 27.8447 165.818 28.4653 168.621 26.2071C169.669 24.8793 170.307 23.6029 170.093 21.8572C169.324 15.6017 161.987 17.3006 157.484 17.1223C157.492 20.5011 157.606 24.5179 157.504 27.8444Z" fill="black"/>
<path d="M228.139 15.479C231.834 15.5854 238.734 14.7732 241.601 17.1321C246.029 20.7765 244.514 28.1736 238.183 28.9835C239.141 30.2923 244.879 36.7615 244.871 37.5947C244.134 38.1242 243.358 37.8285 242.824 37.2167C241.422 35.6376 237.62 30.9635 236.452 29.2609L229.871 29.236C229.869 30.2929 229.951 37.2513 229.73 37.6947C229.246 37.7833 228.814 37.7456 228.325 37.7263C227.997 37.2724 228.052 36.2121 228.069 35.6299C228.255 28.9398 227.924 22.1584 228.139 15.479ZM229.825 27.8435C233.047 27.8486 238.663 28.4222 240.921 26.1706L240.944 26.1459C243.416 23.045 242.84 18.7314 238.733 17.4309C236.504 16.7251 232.288 17.2089 229.808 17.1256L229.825 27.8435Z" fill="black"/>
<path d="M108.629 15.4842C112.346 15.5721 120.151 14.6206 122.84 17.5824C127.298 22.4906 124.701 29.9605 117.493 30.1599L110.401 30.1709C110.416 31.6359 110.54 36.4993 110.338 37.6197C109.972 37.8268 109.147 37.7952 108.684 37.8065C108.496 30.6828 108.962 22.4411 108.629 15.4842ZM110.412 28.624C114.083 28.6467 119.186 29.3634 121.794 26.8211C122.605 25.8518 123.405 24.2317 123.356 22.9601C123.07 15.4655 115.037 17.2833 110.408 17.1314L110.412 28.624Z" fill="black"/>
<path d="M10.4548 3.95386C10.7882 4.1185 12.7404 6.09867 13.1432 6.49577C13.2418 11.3093 13.158 16.4201 13.1618 21.2579C19.3778 21.0164 27.5929 21.169 33.9044 21.2504L33.9348 7.33427C34.7867 6.37114 35.7088 5.47247 36.6935 4.64589C36.6609 5.44391 36.6712 6.38122 36.6618 7.18994L36.6529 24.0526C28.0964 23.8803 19.0298 24.0314 10.4336 24.0324L10.4548 3.95386Z" fill="black"/>
<path d="M10.4112 31.1033C19.136 31.1068 27.9602 31.1728 36.6766 31.0752C36.654 31.7872 36.6559 32.5408 36.6653 33.2544C36.737 38.6215 36.5432 44.0482 36.6992 49.4097C35.7104 48.5204 34.86 47.6435 33.9324 46.6894C33.8698 43.3078 33.9222 39.7183 33.92 36.3232L33.9167 33.8621C27.1706 33.7368 19.9181 33.8157 13.1534 33.8693L13.1478 46.7861C12.4054 47.575 11.2745 48.5996 10.4669 49.4084C10.3205 43.3866 10.4785 37.1606 10.4112 31.1033Z" fill="black"/>
<path d="M44.2969 4.53662C45.0684 4.97191 46.6325 7.04967 47.06 7.86266C47.2894 20.5368 47.077 33.9396 47.0805 46.6874C46.6149 47.0585 46.0962 47.6181 45.6699 48.0533C45.1488 48.6245 44.9393 48.778 44.3033 49.2255L44.2969 4.53662Z" fill="black"/>
<path d="M262.152 15.2218C267.385 14.7468 270.673 17.0745 272.968 21.6691C271.768 21.6531 271.259 21.7864 270.551 20.6812C269.131 18.4897 268.088 17.6006 265.495 17.0618C255.68 15.021 250.61 25.7443 255.913 33.1141C259.911 38.67 270.448 36.8635 271.731 29.7355C271.842 29.1192 271.965 28.4988 272.065 27.8709C270.575 27.6573 264.147 28.1084 263.49 27.5826C263.447 27.2446 263.35 26.6877 263.418 26.3748C264.011 26.1191 272.423 26.2081 273.834 26.2036C273.696 29.2367 273.371 31.7578 271.445 34.2085C267.817 38.8274 260.679 39.2366 256.179 35.7212C251.307 31.9128 250.807 24.0186 254.449 19.2442C256.345 16.7577 259.137 15.5876 262.152 15.2218Z" fill="black"/>
<path d="M2.50725 3.99463C2.58611 4.07695 2.66498 4.15943 2.74383 4.24175C2.7127 19.2942 2.78582 34.3482 2.72986 49.4006C2.4021 48.9951 1.98943 48.5821 1.62594 48.2008C1.13498 47.7677 0.60539 47.2134 0.135565 46.7447C0.00765258 44.6422 0.0359469 42.2636 0.0730363 40.153C0.269661 28.9644 -0.207372 17.6052 0.115745 6.43467C0.732051 5.72493 1.78062 4.78547 2.50725 3.99463Z" fill="black"/>
<path d="M57.5817 15.4693C58.1167 15.4854 58.7393 15.4661 59.2822 15.4634C59.3076 18.7207 59.3103 21.9782 59.2906 25.2355C63.572 25.1623 68.0648 25.233 72.3636 25.2335L72.3753 15.5129L74.1168 15.4703C74.2465 20.1874 74.1057 25.1484 74.1602 29.8868C74.177 31.346 74.2477 36.4492 74.0505 37.6399C73.6928 37.8539 72.8478 37.7853 72.3892 37.7796L72.3871 26.8506C68.7817 27.0513 63.0795 26.8634 59.2833 26.8529C59.3572 29.9709 59.2512 33.1801 59.34 36.3065C59.3557 36.8565 59.1239 37.5322 58.6986 37.9032C58.214 38.0461 58.398 38.066 57.9627 37.834C57.2855 36.9405 57.5449 31.42 57.545 30.0403L57.5817 15.4693Z" fill="black"/>
<path d="M205.794 15.48C209.976 15.608 214.311 15.401 218.523 15.5437C218.735 15.7744 218.703 16.7145 218.714 17.0892C215.205 16.9713 211.091 17.0663 207.538 17.0661L207.524 25.5178C208.694 25.4445 217.643 25.3246 218.025 25.6533C218.043 26.0673 218.084 26.4472 217.967 26.8461C217.188 27.0457 208.862 26.9411 207.538 26.9373L207.521 36.0774L218.791 36.084L218.73 37.7651C214.424 37.7419 210.118 37.7463 205.812 37.7782C205.568 30.881 205.75 22.4756 205.794 15.48Z" fill="black"/>
<path d="M282.543 15.4687C286.565 15.5942 290.842 15.3159 294.869 15.5918C295.275 15.6197 295.299 15.7497 295.504 16.0547C295.424 17.5741 292.435 17.0717 291.283 17.0685L284.145 17.0618C284.183 19.8574 284.151 22.7301 284.156 25.5323C285.38 25.4622 294.429 25.3003 294.852 25.6366C294.843 26.1385 294.934 26.5387 294.676 26.8618C293.586 27.0363 291.58 26.9535 290.418 26.9451L284.217 26.9474C283.998 27.6768 284.153 34.9855 284.156 36.079L295.403 36.0765C295.4 36.7399 295.405 37.0365 295.263 37.6815C294.191 38.0404 284.632 37.6743 282.548 37.8326C282.377 30.6398 282.536 22.7158 282.543 15.4687Z" fill="black"/>
<path d="M133.612 15.4802C136.989 15.5775 140.432 15.4871 143.814 15.5097C144.645 15.5153 145.408 15.3797 146.234 15.559C146.389 16.1217 146.436 16.2622 146.329 16.8472C146.26 16.9197 146.179 17.0046 146.088 17.1018C143.295 17.052 137.733 17.0213 135.215 17.1337C135.149 19.8386 135.192 22.7253 135.186 25.4446C138.22 25.601 142.88 25.2179 145.697 25.5385C145.976 25.9915 145.926 26.4735 145.692 26.92C144.926 27.0015 142.99 26.9409 142.157 26.9381L135.17 26.9319C135.238 29.9143 135.187 33.0703 135.187 36.0657C138.913 36.1221 142.749 36.0834 146.482 36.0849C146.485 36.6366 146.537 37.1652 146.308 37.6634C145.666 37.897 135.08 37.7636 133.599 37.7819C133.438 30.707 133.521 22.5883 133.612 15.4802Z" fill="black"/>
<path d="M195.702 15.4546C196.281 15.4882 196.977 15.4764 197.566 15.4816C197.23 16.1727 196.867 17.2277 196.586 17.969C196.475 18.1957 196.354 18.4364 196.256 18.6684C193.48 25.2264 190.938 31.922 188.023 38.4175C187.2 37.0121 186.472 35.0904 185.826 33.5487L182.587 25.756C181.646 23.4895 178.976 17.4523 178.477 15.5018C178.86 15.4916 180.144 15.3929 180.32 15.7596C181.275 17.7477 182.069 19.9018 182.888 21.9497C184.577 26.1988 186.299 30.4342 188.055 34.6556C189.072 31.5838 190.706 27.7335 191.92 24.6975C193.077 21.8037 194.421 18.1999 195.702 15.4546Z" fill="black"/>
<path d="M98.6316 15.4962L100.601 15.4617C99.36 17.6534 97.6933 20.118 96.3114 22.2625C95.0633 24.2902 93.6999 26.3521 92.4066 28.3576C92.1994 31.3672 92.3846 34.8021 92.2792 37.9003C91.7317 37.7753 91.1536 37.7973 90.5909 37.795C90.5378 34.6865 90.5921 31.5798 90.5274 28.4506C88.7512 25.6452 86.9533 22.8537 85.1339 20.0763C84.3584 18.8775 82.882 16.7188 82.3086 15.5037L84.142 15.5208C86.2327 18.206 89.4585 23.6017 91.3857 26.6273C92.1159 25.7672 93.4084 23.6322 94.0723 22.591C95.5779 20.217 97.0978 17.8521 98.6316 15.4962Z" fill="black"/>
</svg>

<svg xmlns="http://www.w3.org/2000/svg" width="296" height="54" fill="none" viewBox="0 0 296 54"><path fill="#000" d="M6.504 0c.661.412.972.802 1.45 1.404.246 7.748.02 16.92.026 24.763h31.13l.024-24.036c.39-.486.941-.99 1.396-1.431.577.508.844.848 1.33 1.45.255 9.43.022 20.127.023 29.65l.001 12.833c0 1.395.252 6.892-.413 7.73-.357.33-.507.51-.991.613-.505-.058-.966-.624-1.346-1.003-.242-7.177-.024-15.774-.007-23.064-4.019-.129-8.452-.047-12.502-.047l-18.656.034-.015 22.991c-.378.446-.886.921-1.31 1.338-.4-.351-.927-.917-1.315-1.309-.139-2.71-.055-6.043-.053-8.791l.002-15.18-.008-16.938c-.001-3.115-.08-6.687.056-9.768C5.609.897 6.178.34 6.504 0M155.795 15.48c4.06.11 10.379-.716 13.483 1.638a6.4 6.4 0 0 1 2.519 4.36c.51 3.905-2.012 7.019-5.883 7.517 1.59 2.101 5.952 6.943 7.036 8.818-.824.017-1.751.213-2.273-.445-2.014-2.174-4.624-5.682-6.568-8.082a345 345 0 0 0-6.534-.046c-.079 2.782-.015 5.757-.058 8.573A9.7 9.7 0 0 1 156 37.71c-.396-.45-.213-19.785-.205-22.23m1.709 12.364c3.655 0 8.314.621 11.117-1.637 1.048-1.328 1.686-2.604 1.472-4.35-.769-6.255-8.106-4.556-12.609-4.735.008 3.38.122 7.396.02 10.722M228.139 15.479c3.695.106 10.595-.706 13.462 1.653 4.428 3.644 2.913 11.042-3.418 11.851.958 1.31 6.696 7.778 6.688 8.612-.737.53-1.513.233-2.047-.378-1.402-1.58-5.204-6.253-6.372-7.956l-6.581-.025c-.002 1.057.08 8.015-.141 8.459-.484.088-.916.05-1.405.031-.328-.454-.273-1.514-.256-2.096.186-6.69-.145-13.472.07-20.151m1.686 12.365c3.222.005 8.838.578 11.096-1.673l.023-.025c2.472-3.101 1.896-7.415-2.211-8.715-2.229-.706-6.445-.222-8.925-.305zM108.629 15.484c3.717.088 11.522-.863 14.211 2.098 4.458 4.909 1.861 12.378-5.347 12.578l-7.092.01c.015 1.466.139 6.33-.063 7.45-.366.207-1.191.175-1.654.187-.188-7.124.278-15.366-.055-22.323m1.783 13.14c3.671.023 8.774.74 11.382-1.803.811-.97 1.611-2.59 1.562-3.86-.286-7.495-8.319-5.678-12.948-5.83z"/><path fill="#000" d="M10.455 3.954c.333.164 2.285 2.145 2.688 2.542.099 4.813.015 9.924.019 14.762 6.216-.242 14.43-.089 20.742-.008l.03-13.916a26 26 0 0 1 2.76-2.688c-.033.798-.023 1.735-.032 2.544l-.01 16.863c-8.556-.173-17.622-.022-26.218-.02zM10.411 31.103c8.725.004 17.55.07 26.266-.028-.023.712-.021 1.466-.012 2.18.072 5.366-.122 10.793.034 16.155-.989-.89-1.839-1.766-2.767-2.72-.062-3.382-.01-6.972-.012-10.367l-.003-2.46c-6.746-.126-13.999-.047-20.764.006l-.005 12.917c-.743.789-1.873 1.814-2.681 2.622-.147-6.021.011-12.247-.056-18.305M44.297 4.537c.771.435 2.336 2.513 2.763 3.326.23 12.674.017 26.077.02 38.824-.465.372-.984.931-1.41 1.366-.521.572-.73.725-1.367 1.172zM262.152 15.222c5.233-.475 8.521 1.853 10.816 6.447-1.2-.016-1.709.117-2.417-.988-1.42-2.191-2.463-3.08-5.056-3.62-9.815-2.04-14.885 8.683-9.582 16.053 3.998 5.556 14.535 3.75 15.818-3.378.111-.617.234-1.237.334-1.865-1.49-.214-7.918.237-8.575-.288-.043-.338-.14-.895-.072-1.208.593-.256 9.005-.167 10.416-.171-.138 3.033-.463 5.554-2.389 8.005-3.628 4.618-10.766 5.028-15.266 1.512-4.872-3.808-5.372-11.702-1.73-16.477 1.896-2.486 4.688-3.656 7.703-4.022M2.507 3.995l.237.247c-.031 15.052.042 30.106-.014 45.159-.328-.406-.74-.819-1.104-1.2-.491-.433-1.02-.988-1.49-1.456-.128-2.103-.1-4.481-.063-6.592.197-11.189-.28-22.548.043-33.718.616-.71 1.665-1.65 2.391-2.44M57.582 15.47c.535.015 1.157-.004 1.7-.007q.038 4.887.009 9.772c4.281-.073 8.774-.002 13.073-.002l.011-9.72 1.742-.043c.13 4.717-.011 9.678.043 14.417.017 1.459.088 6.562-.11 7.753-.357.214-1.202.145-1.66.14l-.003-10.93c-3.605.201-9.307.013-13.104.003.074 3.118-.032 6.327.057 9.453.016.55-.216 1.226-.641 1.597-.485.143-.301.163-.736-.069-.678-.894-.418-6.414-.418-7.794zM205.794 15.48c4.182.128 8.517-.079 12.729.064.212.23.18 1.17.191 1.545-3.509-.118-7.623-.023-11.176-.023l-.014 8.452c1.17-.073 10.119-.193 10.501.135.018.414.059.794-.058 1.193-.779.2-9.105.095-10.429.091l-.017 9.14 11.27.007-.061 1.681q-6.459-.035-12.918.013c-.244-6.897-.062-15.302-.018-22.298M282.543 15.469c4.022.125 8.299-.153 12.326.123.406.028.43.158.635.463-.08 1.52-3.069 1.017-4.221 1.014l-7.138-.007c.038 2.795.006 5.668.011 8.47 1.224-.07 10.273-.232 10.696.105-.009.502.082.902-.176 1.225-1.09.174-3.096.091-4.258.083l-6.201.002c-.219.73-.064 8.039-.061 9.132l11.247-.002c-.003.663.002.96-.14 1.605-1.072.358-10.631-.008-12.715.15-.171-7.192-.012-15.116-.005-22.363M133.612 15.48c3.377.098 6.82.007 10.202.03.831.005 1.594-.13 2.42.049.155.563.202.703.095 1.288l-.241.255c-2.793-.05-8.355-.08-10.873.032-.066 2.705-.023 5.591-.029 8.31 3.034.157 7.694-.226 10.511.095.279.452.229.934-.005 1.381-.766.081-2.702.02-3.535.018l-6.987-.006c.068 2.982.017 6.138.017 9.134 3.726.056 7.562.017 11.295.019.003.552.055 1.08-.174 1.578-.642.234-11.228.1-12.709.119-.161-7.075-.078-15.194.013-22.302M195.702 15.455c.579.033 1.275.021 1.864.027-.336.69-.699 1.746-.98 2.487-.111.227-.232.467-.33.7-2.776 6.557-5.318 13.253-8.233 19.748-.823-1.405-1.551-3.327-2.197-4.868l-3.239-7.793c-.941-2.267-3.611-8.304-4.11-10.254.383-.01 1.667-.11 1.843.258.955 1.988 1.749 4.142 2.568 6.19a865 865 0 0 0 5.167 12.706c1.017-3.072 2.651-6.922 3.865-9.958 1.157-2.894 2.501-6.498 3.782-9.243M98.632 15.496l1.969-.034c-1.241 2.191-2.908 4.656-4.29 6.8-1.248 2.028-2.611 4.09-3.904 6.096-.208 3.01-.022 6.444-.128 9.542-.547-.125-1.125-.103-1.688-.105-.053-3.108.001-6.215-.064-9.344a643 643 0 0 0-5.393-8.375c-.776-1.198-2.252-3.357-2.825-4.572l1.833.017c2.09 2.685 5.317 8.08 7.244 11.106.73-.86 2.022-2.995 2.686-4.036a708 708 0 0 1 4.56-7.095"/></svg>
